src/epub/images/titlepage.svg

<?xml version="1.0" encoding="utf-8"?>
<svg xmlns="http://www.w3.org/2000/svg" xmlns:svg="http://www.w3.org/2000/svg" version="1.1" viewBox="0 0 1400 340">
	<title>The titlepage for the Standard Ebooks edition of Phantastes, by George MacDonald</title>
	<g>
		<path d="m 366.41081,52.807016 0,77.192984 17.59065,0 0,-28.63158 10.5731,0 c 15.06432,0 26.38596,-8.888888 26.38596,-24.795322 0,-16 -11.32164,-23.766082 -26.38596,-23.766082 l -28.16375,0 z m 17.59065,34.526317 0,-20.491229 4.95906,0 c 6.92398,0 13.47369,2.339181 13.47369,10.292398 0,7.859649 -6.54971,10.198831 -13.47369,10.198831 l -4.95906,0 z"/>
		<path d="m 451.31871,99.029239 24.88889,0 0,30.970761 17.59064,0 0,-77.192984 -17.59064,0 0,30.783626 -24.88889,0 0,-30.783626 -17.59064,0 0,77.192984 17.59064,0 0,-30.970761 z"/>
		<path d="m 549.20468,52.807016 -16.2807,0 L 501.76608,130 l 18.90059,0 5.7076,-15.4386 29.38012,0 5.7076,15.4386 18.90059,0 -31.1579,-77.192984 z m 0.5614,46.31579 -17.40351,0 8.60819,-22.45614 0.18714,0 8.60818,22.45614 z"/>
		<path d="m 605.87281,82.093566 0.18713,0 L 636.75,130 l 17.59065,0 0,-77.192984 -17.59065,0 0,47.906434 -0.18713,0 -30.69006,-47.906434 -17.59064,0 0,77.192984 17.59064,0 0,-47.906434 z"/>
		<path d="m 661.1506,68.245613 18.33918,0 0,61.754387 17.59065,0 0,-61.754387 18.33918,0 0,-15.438597 -54.26901,0 0,15.438597 z"/>
		<path d="m 761.39036,52.807016 -16.2807,0 L 713.95177,130 l 18.90058,0 5.7076,-15.4386 29.38012,0 5.7076,15.4386 18.90059,0 -31.1579,-77.192984 z m 0.56141,46.31579 -17.40351,0 8.60819,-22.45614 0.18713,0 8.60819,22.45614 z"/>
		<path d="m 827.08481,51.403507 c -12.44444,0 -25.16959,9.169591 -25.16959,23.578948 0,8.046784 5.4269,15.251462 14.69006,19.836258 9.16959,4.584795 17.40351,7.111107 17.40351,12.725147 0,7.20468 -7.29825,7.57895 -11.1345,7.57895 -8.60819,0 -18.90059,-8.70176 -18.90059,-8.70176 l -8.79532,14.78363 c 0,0 10.94737,10.19883 29.00585,10.19883 15.06432,0 29.09941,-6.45614 29.09941,-24.88889 0,-10.105264 -9.45029,-17.40351 -18.05848,-21.052632 -8.79532,-3.742691 -16.09357,-6.83041 -16.09357,-11.134504 0,-4.210526 3.18129,-6.923976 9.1696,-6.923976 7.95321,0 15.62573,5.333333 15.62573,5.333333 l 7.11111,-14.035088 c 0,0 -9.91813,-7.298246 -23.95322,-7.298246 z"/>
		<path d="m 857.07165,68.245613 18.33918,0 0,61.754387 17.59065,0 0,-61.754387 18.33918,0 0,-15.438597 -54.26901,0 0,15.438597 z"/>
		<path d="m 966.83921,52.807016 -44.16375,0 0,77.192984 44.16375,0 0,-15.4386 -26.5731,0 0,-15.532161 25.45029,0 0,-15.438597 -25.45029,0 0,-15.345029 26.5731,0 0,-15.438597 z"/>
		<path d="m 1010.3962,51.403507 c -12.44443,0 -25.16958,9.169591 -25.16958,23.578948 0,8.046784 5.4269,15.251462 14.69006,19.836258 9.16962,4.584795 17.40352,7.111107 17.40352,12.725147 0,7.20468 -7.2983,7.57895 -11.1345,7.57895 -8.6082,0 -18.9006,-8.70176 -18.9006,-8.70176 l -8.79532,14.78363 c 0,0 10.94737,10.19883 29.00582,10.19883 15.0644,0 29.0994,-6.45614 29.0994,-24.88889 0,-10.105264 -9.4502,-17.40351 -18.0584,-21.052632 -8.7954,-3.742691 -16.0936,-6.83041 -16.0936,-11.134504 0,-4.210526 3.1813,-6.923976 9.1696,-6.923976 7.9532,0 15.6257,5.333333 15.6257,5.333333 l 7.1111,-14.035088 c 0,0 -9.9181,-7.298246 -23.9532,-7.298246 z"/>
	</g>
	<g>
		<path d="m 309.86459,257.57895 -26.73685,0 0,10.17544 13.33334,0 c 0,7.08772 -6.24562,11.15789 -12.56141,11.15789 -8.14035,0 -14.73684,-8 -14.73684,-17.82456 0,-10.03509 6.59649,-18.10526 14.73684,-18.10526 5.12281,0 9.54386,2.03508 12.91229,7.43859 l 8.63157,-9.47368 c -5.05263,-6.10526 -12.14035,-9.89474 -22.31579,-9.89474 -16.2807,0 -28.21052,13.40351 -28.21052,30.03509 0,16.5614 12.63158,29.96491 28.21052,29.96491 11.36843,0 23.57895,-6.24561 26.73685,-20.91228 l 0,-12.5614 z"/>
		<path d="m 353.75055,232.10526 -33.12281,0 0,57.89474 33.12281,0 0,-11.57895 -19.92982,0 0,-11.64912 19.08771,0 0,-11.57895 -19.08771,0 0,-11.50877 19.92982,0 0,-11.57895 z"/>
		<path d="m 363.73849,261.01754 c 0,16.91228 12.07018,30.03509 29.19298,30.03509 16.63158,0 29.12281,-13.12281 29.12281,-30.03509 0,-16.91228 -13.05263,-29.96491 -29.12281,-29.96491 -15.92982,0 -29.19298,13.05263 -29.19298,29.96491 z m 14.24562,0 c 0,-8.63157 4.77193,-17.26315 14.94736,-17.26315 10.24562,0 14.8772,8.63158 14.8772,17.26315 0,8.63158 -4.35088,17.26316 -14.8772,17.26316 -10.80701,0 -14.94736,-8.63158 -14.94736,-17.26316 z"/>
		<path d="m 432.87556,232.10526 0,57.89474 13.19298,0 0,-22.87719 17.68421,22.87719 16.77193,0 -19.92983,-23.92982 c 7.08772,-2.24562 11.85965,-8.07018 11.85965,-16.77193 0,-11.36842 -8.14035,-17.19299 -18.87719,-17.19299 l -20.70175,0 z m 13.19298,25.68421 0,-15.15789 1.54386,0 c 4.98245,0 10.94737,0.35088 10.94737,7.57895 0,7.22807 -5.96492,7.57894 -10.94737,7.57894 l -1.54386,0 z"/>
		<path d="m 540.52796,257.57895 -26.73684,0 0,10.17544 13.33333,0 c 0,7.08772 -6.24561,11.15789 -12.5614,11.15789 -8.14035,0 -14.73684,-8 -14.73684,-17.82456 0,-10.03509 6.59649,-18.10526 14.73684,-18.10526 5.12281,0 9.54386,2.03508 12.91228,7.43859 l 8.63158,-9.47368 c -5.05263,-6.10526 -12.14035,-9.89474 -22.31579,-9.89474 -16.2807,0 -28.21053,13.40351 -28.21053,30.03509 0,16.5614 12.63158,29.96491 28.21053,29.96491 11.36842,0 23.57895,-6.24561 26.73684,-20.91228 l 0,-12.5614 z"/>
		<path d="m 584.41392,232.10526 -33.12281,0 0,57.89474 33.12281,0 0,-11.57895 -19.92982,0 0,-11.64912 19.08772,0 0,-11.57895 -19.08772,0 0,-11.50877 19.92982,0 0,-11.57895 z"/>
		<path d="m 669.04661,290 13.19298,0 -5.19298,-57.89474 -14.03509,0 -12.84211,33.40351 -12.8421,-33.40351 -14.03509,0 -5.19298,57.89474 13.19298,0 2.73684,-34.31579 0.35088,0 11.85965,33.96491 7.85965,0 11.85965,-33.96491 0.35087,0 L 669.04661,290 Z"/>
		<path d="m 721.92817,232.10526 -12.21052,0 L 686.34923,290 l 14.17544,0 4.2807,-11.57895 22.03508,0 4.28071,11.57895 14.17544,0 -23.36843,-57.89474 z m 0.42106,34.73685 -13.05263,0 6.45614,-16.84211 0.14035,0 6.45614,16.84211 z"/>
		<path d="m 781.10033,278.07018 c -13.26316,0 -19.08772,-9.26316 -19.08772,-17.05264 0,-7.71929 5.82456,-16.98245 19.08772,-16.98245 6.73684,0 11.36842,3.57895 11.36842,3.57895 l 5.61404,-11.22807 c 0,0 -6.45615,-5.33334 -19.01755,-5.33334 -16.42105,0 -31.36842,13.47369 -31.36842,30.10527 0,16.5614 15.01754,29.89473 31.36842,29.89473 12.5614,0 19.01755,-5.33333 19.01755,-5.33333 l -5.61404,-11.22807 c 0,0 -4.63158,3.57895 -11.36842,3.57895 z"/>
		<path d="m 808.19901,232.10526 0,57.89474 16.77193,0 c 15.92983,0 29.19298,-12.07018 29.19298,-28.98246 0,-16.8421 -13.33333,-28.91228 -29.19298,-28.91228 l -16.77193,0 z m 13.19299,46.10527 0,-34.31579 2.03508,0 c 9.82456,0 16.49123,7.50877 16.49123,17.19298 -0.0702,9.68421 -6.73684,17.12281 -16.49123,17.12281 l -2.03508,0 z"/>
		<path d="m 862.41173,261.01754 c 0,16.91228 12.07017,30.03509 29.19298,30.03509 16.63158,0 29.1228,-13.12281 29.1228,-30.03509 0,-16.91228 -13.05263,-29.96491 -29.1228,-29.96491 -15.92983,0 -29.19298,13.05263 -29.19298,29.96491 z m 14.24561,0 c 0,-8.63157 4.77193,-17.26315 14.94737,-17.26315 10.24561,0 14.87719,8.63158 14.87719,17.26315 0,8.63158 -4.35088,17.26316 -14.87719,17.26316 -10.80702,0 -14.94737,-8.63158 -14.94737,-17.26316 z"/>
		<path d="m 944.74179,254.07018 0.14035,0 23.01754,35.92982 13.19298,0 0,-57.89474 -13.19298,0 0,35.92983 -0.14035,0 -23.01754,-35.92983 -13.19298,0 0,57.89474 13.19298,0 0,-35.92982 z"/>
		<path d="m 1023.9292,232.10526 -12.2105,0 L 988.3503,290 l 14.1754,0 4.2807,-11.57895 22.0351,0 4.2807,11.57895 14.1755,0 -23.3685,-57.89474 z m 0.4211,34.73685 -13.0526,0 6.4561,-16.84211 0.1404,0 6.4561,16.84211 z"/>
		<path d="m 1067.6804,232.10526 -13.193,0 0,57.89474 33.1228,0 0,-11.57895 -19.9298,0 0,-46.31579 z"/>
		<path d="m 1099.0981,232.10526 0,57.89474 16.772,0 c 15.9298,0 29.1929,-12.07018 29.1929,-28.98246 0,-16.8421 -13.3333,-28.91228 -29.1929,-28.91228 l -16.772,0 z m 13.193,46.10527 0,-34.31579 2.0351,0 c 9.8246,0 16.4912,7.50877 16.4912,17.19298 -0.07,9.68421 -6.7368,17.12281 -16.4912,17.12281 l -2.0351,0 z"/>
	</g>
</svg>

<?xml version="1.0" encoding="utf-8"?>
<svg xmlns="http://www.w3.org/2000/svg" xmlns:svg="http://www.w3.org/2000/svg" version="1.1" viewBox="0 0 1400 340">
	<title>The titlepage for the Standard Ebooks edition of Phantastes, by George MacDonald</title>
	<g aria-label="PHANTASTES">
		<path d="M 366.41081,52.807016 V 130 h 17.59065 v -28.63158 h 10.5731 c 15.06432,0 26.38596,-8.888888 26.38596,-24.795322 0,-16 -11.32164,-23.766082 -26.38596,-23.766082 z m 17.59065,34.526317 V 66.842104 h 4.95906 c 6.92398,0 13.47369,2.339181 13.47369,10.292398 0,7.859649 -6.54971,10.198831 -13.47369,10.198831 z"/>
		<path d="M 451.31871,99.029239 H 476.2076 V 130 h 17.59064 V 52.807016 H 476.2076 V 83.590642 H 451.31871 V 52.807016 H 433.72807 V 130 h 17.59064 z"/>
		<path d="m 549.20468,52.807016 h -16.2807 L 501.76608,130 h 18.90059 l 5.7076,-15.4386 h 29.38012 L 561.46199,130 h 18.90059 z m 0.5614,46.31579 h -17.40351 l 8.60819,-22.45614 h 0.18714 z"/>
		<path d="m 605.87281,82.093566 h 0.18713 L 636.75,130 h 17.59065 V 52.807016 H 636.75 v 47.906434 h -0.18713 L 605.87281,52.807016 H 588.28217 V 130 h 17.59064 z"/>
		<path d="m 661.1506,68.245613 h 18.33918 V 130 h 17.59065 V 68.245613 h 18.33918 V 52.807016 H 661.1506 Z"/>
		<path d="m 761.39036,52.807016 h -16.2807 L 713.95177,130 h 18.90058 l 5.7076,-15.4386 h 29.38012 L 773.64767,130 h 18.90059 z m 0.56141,46.31579 h -17.40351 l 8.60819,-22.45614 h 0.18713 z"/>
		<path d="m 827.08481,51.403507 c -12.44444,0 -25.16959,9.169591 -25.16959,23.578948 0,8.046784 5.4269,15.251462 14.69006,19.836258 9.16959,4.584795 17.40351,7.111107 17.40351,12.725147 0,7.20468 -7.29825,7.57895 -11.1345,7.57895 -8.60819,0 -18.90059,-8.70176 -18.90059,-8.70176 l -8.79532,14.78363 c 0,0 10.94737,10.19883 29.00585,10.19883 15.06432,0 29.09941,-6.45614 29.09941,-24.88889 0,-10.105264 -9.45029,-17.40351 -18.05848,-21.052632 -8.79532,-3.742691 -16.09357,-6.83041 -16.09357,-11.134504 0,-4.210526 3.18129,-6.923976 9.1696,-6.923976 7.95321,0 15.62573,5.333333 15.62573,5.333333 l 7.11111,-14.035088 c 0,0 -9.91813,-7.298246 -23.95322,-7.298246 z"/>
		<path d="m 857.07165,68.245613 h 18.33918 V 130 h 17.59065 V 68.245613 h 18.33918 V 52.807016 h -54.26901 z"/>
		<path d="M 966.83921,52.807016 H 922.67546 V 130 h 44.16375 v -15.4386 h -26.5731 V 99.029239 H 965.7164 V 83.590642 H 940.26611 V 68.245613 h 26.5731 z"/>
		<path d="m 1010.3962,51.403507 c -12.44443,0 -25.16958,9.169591 -25.16958,23.578948 0,8.046784 5.4269,15.251462 14.69006,19.836258 9.16962,4.584795 17.40352,7.111107 17.40352,12.725147 0,7.20468 -7.2983,7.57895 -11.1345,7.57895 -8.6082,0 -18.9006,-8.70176 -18.9006,-8.70176 l -8.79532,14.78363 c 0,0 10.94737,10.19883 29.00582,10.19883 15.0644,0 29.0994,-6.45614 29.0994,-24.88889 0,-10.105264 -9.4502,-17.40351 -18.0584,-21.052632 -8.7954,-3.742691 -16.0936,-6.83041 -16.0936,-11.134504 0,-4.210526 3.1813,-6.923976 9.1696,-6.923976 7.9532,0 15.6257,5.333333 15.6257,5.333333 l 7.1111,-14.035088 c 0,0 -9.9181,-7.298246 -23.9532,-7.298246 z"/>
	</g>
	<g aria-label="GEORGE MACDONALD">
		<path d="m 309.86459,257.57895 h -26.73685 v 10.17544 h 13.33334 c 0,7.08772 -6.24562,11.15789 -12.56141,11.15789 -8.14035,0 -14.73684,-8 -14.73684,-17.82456 0,-10.03509 6.59649,-18.10526 14.73684,-18.10526 5.12281,0 9.54386,2.03508 12.91229,7.43859 l 8.63157,-9.47368 c -5.05263,-6.10526 -12.14035,-9.89474 -22.31579,-9.89474 -16.2807,0 -28.21052,13.40351 -28.21052,30.03509 0,16.5614 12.63158,29.96491 28.21052,29.96491 11.36843,0 23.57895,-6.24561 26.73685,-20.91228 z"/>
		<path d="M 353.75055,232.10526 H 320.62774 V 290 h 33.12281 v -11.57895 h -19.92982 v -11.64912 h 19.08771 v -11.57895 h -19.08771 v -11.50877 h 19.92982 z"/>
		<path d="m 363.73849,261.01754 c 0,16.91228 12.07018,30.03509 29.19298,30.03509 16.63158,0 29.12281,-13.12281 29.12281,-30.03509 0,-16.91228 -13.05263,-29.96491 -29.12281,-29.96491 -15.92982,0 -29.19298,13.05263 -29.19298,29.96491 z m 14.24562,0 c 0,-8.63157 4.77193,-17.26315 14.94736,-17.26315 10.24562,0 14.8772,8.63158 14.8772,17.26315 0,8.63158 -4.35088,17.26316 -14.8772,17.26316 -10.80701,0 -14.94736,-8.63158 -14.94736,-17.26316 z"/>
		<path d="M 432.87556,232.10526 V 290 h 13.19298 V 267.12281 L 463.75275,290 h 16.77193 l -19.92983,-23.92982 c 7.08772,-2.24562 11.85965,-8.07018 11.85965,-16.77193 0,-11.36842 -8.14035,-17.19299 -18.87719,-17.19299 z m 13.19298,25.68421 v -15.15789 h 1.54386 c 4.98245,0 10.94737,0.35088 10.94737,7.57895 0,7.22807 -5.96492,7.57894 -10.94737,7.57894 z"/>
		<path d="m 540.52796,257.57895 h -26.73684 v 10.17544 h 13.33333 c 0,7.08772 -6.24561,11.15789 -12.5614,11.15789 -8.14035,0 -14.73684,-8 -14.73684,-17.82456 0,-10.03509 6.59649,-18.10526 14.73684,-18.10526 5.12281,0 9.54386,2.03508 12.91228,7.43859 l 8.63158,-9.47368 c -5.05263,-6.10526 -12.14035,-9.89474 -22.31579,-9.89474 -16.2807,0 -28.21053,13.40351 -28.21053,30.03509 0,16.5614 12.63158,29.96491 28.21053,29.96491 11.36842,0 23.57895,-6.24561 26.73684,-20.91228 z"/>
		<path d="M 584.41392,232.10526 H 551.29111 V 290 h 33.12281 V 278.42105 H 564.4841 v -11.64912 h 19.08772 V 255.19298 H 564.4841 v -11.50877 h 19.92982 z"/>
		<path d="m 669.04661,290 h 13.19298 l -5.19298,-57.89474 h -14.03509 l -12.84211,33.40351 -12.8421,-33.40351 H 623.29222 L 618.09924,290 h 13.19298 l 2.73684,-34.31579 h 0.35088 l 11.85965,33.96491 h 7.85965 l 11.85965,-33.96491 h 0.35087 z"/>
		<path d="M 721.92817,232.10526 H 709.71765 L 686.34923,290 h 14.17544 l 4.2807,-11.57895 h 22.03508 L 731.12116,290 h 14.17544 z m 0.42106,34.73685 H 709.2966 L 715.75274,250 h 0.14035 z"/>
		<path d="m 781.10033,278.07018 c -13.26316,0 -19.08772,-9.26316 -19.08772,-17.05264 0,-7.71929 5.82456,-16.98245 19.08772,-16.98245 6.73684,0 11.36842,3.57895 11.36842,3.57895 l 5.61404,-11.22807 c 0,0 -6.45615,-5.33334 -19.01755,-5.33334 -16.42105,0 -31.36842,13.47369 -31.36842,30.10527 0,16.5614 15.01754,29.89473 31.36842,29.89473 12.5614,0 19.01755,-5.33333 19.01755,-5.33333 l -5.61404,-11.22807 c 0,0 -4.63158,3.57895 -11.36842,3.57895 z"/>
		<path d="M 808.19901,232.10526 V 290 h 16.77193 c 15.92983,0 29.19298,-12.07018 29.19298,-28.98246 0,-16.8421 -13.33333,-28.91228 -29.19298,-28.91228 z m 13.19299,46.10527 v -34.31579 h 2.03508 c 9.82456,0 16.49123,7.50877 16.49123,17.19298 -0.0702,9.68421 -6.73684,17.12281 -16.49123,17.12281 z"/>
		<path d="m 862.41173,261.01754 c 0,16.91228 12.07017,30.03509 29.19298,30.03509 16.63158,0 29.1228,-13.12281 29.1228,-30.03509 0,-16.91228 -13.05263,-29.96491 -29.1228,-29.96491 -15.92983,0 -29.19298,13.05263 -29.19298,29.96491 z m 14.24561,0 c 0,-8.63157 4.77193,-17.26315 14.94737,-17.26315 10.24561,0 14.87719,8.63158 14.87719,17.26315 0,8.63158 -4.35088,17.26316 -14.87719,17.26316 -10.80702,0 -14.94737,-8.63158 -14.94737,-17.26316 z"/>
		<path d="m 944.74179,254.07018 h 0.14035 L 967.89968,290 h 13.19298 v -57.89474 h -13.19298 v 35.92983 h -0.14035 L 944.74179,232.10526 H 931.54881 V 290 h 13.19298 z"/>
		<path d="m 1023.9292,232.10526 h -12.2105 L 988.3503,290 h 14.1754 l 4.2807,-11.57895 h 22.0351 L 1033.1222,290 h 14.1755 z m 0.4211,34.73685 h -13.0526 L 1017.7538,250 h 0.1404 z"/>
		<path d="m 1067.6804,232.10526 h -13.193 V 290 h 33.1228 v -11.57895 h -19.9298 z"/>
		<path d="M 1099.0981,232.10526 V 290 h 16.772 c 15.9298,0 29.1929,-12.07018 29.1929,-28.98246 0,-16.8421 -13.3333,-28.91228 -29.1929,-28.91228 z m 13.193,46.10527 v -34.31579 h 2.0351 c 9.8246,0 16.4912,7.50877 16.4912,17.19298 -0.07,9.68421 -6.7368,17.12281 -16.4912,17.12281 z"/>
	</g>
</svg>
